web/ui/src/assets/svgs/logo/error.svg

<svg height="56" viewBox="0 0 56 56" width="56" xmlns="http://www.w3.org/2000/svg"><g fill="none" fill-rule="evenodd"><path d="m0 0h56v56h-56z" fill="#000" fill-rule="nonzero" opacity="0"/><path d="m1.86666667 28c0 9.3365409 4.98098502 17.9638604 13.06666653 22.6321309 8.0856816 4.6682705 18.0476521 4.6682705 26.1333336 0s13.0666666-13.29559 13.0666666-22.6321309c0-14.4330415-11.7002919-26.13333333-26.1333334-26.13333333s-26.13333333 11.70029183-26.13333333 26.13333333z" fill="#cf1322"/><path d="m17.5603045 17.5569705c1.0103951-1.009294 2.6472368-1.009294 3.6576318 0l6.7976743 6.7952705 6.7976743-6.7987217c1.0159163-.9804438 2.6300369-.9656596 3.6278296.0332283s1.0110525 2.6132704.0298022 3.6284183l-6.7942237 6.7987215 6.7976743 6.7987216c.9802928 1.0160729.965511 2.6304421-.0332231 3.6283886-.998734.9979464-2.6128678 1.0112083-3.6278593.0298068l-6.7976743-6.7952705-6.7976743 6.7987216c-1.0159163.9804439-2.6300369.9656597-3.6278296-.0332282s-1.0110525-2.6132704-.0298022-3.6284183l6.7942237-6.7987216-6.7976743-6.7987215c-1.0091385-1.0105508-1.0091385-2.6476447 0-3.6581954z" fill="#fff" fill-rule="nonzero"/></g></svg>

<?xml version="1.0" encoding="UTF-8"?>
<svg width="56px" height="56px" viewBox="0 0 56 56" version="1.1" xmlns="http://www.w3.org/2000/svg" xmlns:xlink="http://www.w3.org/1999/xlink">
    <title>关闭</title>
    <g id="页面-1" stroke="none" stroke-width="1" fill="none" fill-rule="evenodd">
        <g id="建木自动化-登录失败(Gitee)" transform="translate(-932.000000, -249.000000)">
            <g id="关闭" transform="translate(932.000000, 249.000000)">
                <rect id="矩形" fill="#000000" fill-rule="nonzero" opacity="0" x="0" y="0" width="56" height="56"></rect>
                <path d="M1.86666667,28 C1.86666667,37.3365409 6.84765169,45.9638604 14.9333332,50.6321309 C23.0190148,55.3004014 32.9809853,55.3004014 41.0666668,50.6321309 C49.1523483,45.9638604 54.1333334,37.3365409 54.1333334,28 C54.1333334,13.5669585 42.4330415,1.86666667 28,1.86666667 C13.5669585,1.86666667 1.86666667,13.5669585 1.86666667,28 Z" id="路径" fill="#CF1322"></path>
                <path d="M17.5603045,17.5569705 C18.5706996,16.5476765 20.2075413,16.5476765 21.2179363,17.5569705 L28.0156106,24.352241 L34.8132849,17.5535193 C35.8292012,16.5730755 37.4433218,16.5878597 38.4411145,17.5867476 C39.4389072,18.5856355 39.452167,20.200018 38.4709167,21.2151659 L31.676693,28.0138874 L38.4743673,34.812609 C39.4546601,35.8286819 39.4398783,37.4430511 38.4411442,38.4409976 C37.4424102,39.438944 35.8282764,39.4522059 34.8132849,38.4708044 L28.0156106,31.6755339 L21.2179363,38.4742555 C20.20202,39.4546994 18.5878994,39.4399152 17.5901067,38.4410273 C16.592314,37.4421394 16.5790542,35.8277569 17.5603045,34.812609 L24.3545282,28.0138874 L17.5568539,21.2151659 C16.5477154,20.2046151 16.5477154,18.5675212 17.5568539,17.5569705 L17.5603045,17.5569705 Z" id="路径" fill="#FFFFFF" fill-rule="nonzero"></path>
            </g>
        </g>
    </g>
</svg>
